**kern	**kern	**dynam
*part1	*part1	*part1
*staff2	*staff1	*
*I"Piano	*	*
*clefF4	*clefG2	*
*k[b-e-a-d-]	*k[b-e-a-d-]	*
=1	=1	=1
2.GG	2.Bn 2.f 2.bn	.
=	=	=
*	*^	*
2.EEn	2.B-X 2.d-X 2.b-X	2g-X	.
.	.	4gn	.
*	*v	*v	*
=	=	=
2FF)	2A-) 2c 2f 2a-	.
(4EE-X	(4An 4c 4g-X 4an	.
=	=	=
2DD-X	2B- 2f 2b-	.
4CC	4c 4e- 4an 4cc	.
=	=	=
2BBB-)	2d-) 2f 2b- 2dd-	.
4r	4r	.
=	=	=
2.r	2.r	.
=	=	=
*	*^	*
[2.D-	([2.f	2.B-	pp
=	=	=	=
2.D-]	2f]	2.Bn	.
.	4en)	.	.
=	=	=	=
[2.C	(2.f	[2.c	.
=	=	=	=
2.C;]	2.en;)	2.c]	.
*	*v	*v	*
==	==	==
*-	*-	*-
!!!system-decoration: {(s1,s2)}
